X:10030009
T:Gavotte Shep16   Em
B:Shepard
O:Brittany (Dave Shepherd #16)
Q:3/8=175"     Drone E"
M:12/8
K:Em
L:1/8
%%MIDI gchordon
|: "Em"E2G G2B B2B A2B | AGF "D"G2F "Em" E3 E3:|
|: "Em"E2G G2B B2B "D"A2B | "Am"cBA A2B c2d "Bm"B3 | "Em"E2G G2B B2B A2B | AGF "D"G2F "Em" E3 E3 :|

%%newpage
